X:87
T:North Clare Jig, The
T:Old Kilfenora Jig, The
R:slide
Z:id:hn-slide-87
M:6/8
L:1/8
K:G
B3 BAG | F2d d^cd | B2g gfg | eag fed |
B3 BAG | F2d d^cd | ede fef | a3 g2d :|
|: gfg b2d | gfg b2g | fag fed | fag fed |
gfg b2d | gfg b2g | fag fef | aba g2d :| 
<end>
<start>
